;PYCAM-META-DATA: Filename: /home/ilmoeuro/Asiakirjat/Projektit/workshop-robots/raspirobot_body.dxf
;PYCAM-META-DATA: Timestamp: 2016-02-08 18:00:00.917271
;PYCAM-META-DATA: Version: 0.5.1
;Estimated machine time: 3 minutes
G40 (disable tool radius compensation)
G49 (disable tool length compensation)
G80 (cancel modal motion)
G54 (select coordinate system 1)
G90 (disable incremental moves)
G21 (metric)
G61 (exact path mode)
F200.00000
S1000.00000
;PYCAM_TOOLPATH_SETTINGS: START
;[Bounds]
;maxz = 0.0
;maxx = 33.7
;maxy = 59.5
;minx = -33.7
;miny = -59.5
;minz = 0.0
;
;[Tool]
;torus_radius = 0.25
;speed = 1000.0
;shape = SphericalCutter
;tool_radius = 0.5
;feedrate = 200.0
;
;[Process]
;engrave_offset = 0.0
;step_down = 1.0
;generator = EngraveCutter
;postprocessor = SimpleCutter
;overlap_percent = 0
;milling_style = conventional
;material_allowance = 0.0
;pocketing_type = none
;path_direction = x
;
;PYCAM_TOOLPATH_SETTINGS: END
T3 M6
G0 Z5.0000
M3 (start spindle)
G04 P3 (wait for 3 seconds)
 X-24.6516 Y37.5579
G1 Z0.0000
 X-24.9481 Y37.6210
 X-25.2250 Y37.7443
 X-25.4702 Y37.9224
 X-25.6731 Y38.1477
 X-25.8246 Y38.4102
 X-25.9183 Y38.6985
 X-25.9500 Y39.0000
 X-25.9183 Y39.3015
 X-25.8246 Y39.5898
 X-25.6731 Y39.8523
 X-25.4702 Y40.0775
 X-25.2250 Y40.2557
 X-24.9481 Y40.3790
 X-24.6516 Y40.4420
 X-24.3484
 X-24.0519 Y40.3790
 X-23.7750 Y40.2557
 X-23.5298 Y40.0775
 X-23.3269 Y39.8523
 X-23.1754 Y39.5898
 X-23.0817 Y39.3015
 X-23.0500 Y39.0000
 X-23.0817 Y38.6985
 X-23.1754 Y38.4102
 X-23.3269 Y38.1477
 X-23.5298 Y37.9224
 X-23.7750 Y37.7443
 X-24.0519 Y37.6210
 X-24.3484 Y37.5579
 X-24.6516
G0 Z5.0000
 X24.3484
G1 Z0.0000
 X24.0519 Y37.6210
 X23.7750 Y37.7443
 X23.5298 Y37.9224
 X23.3269 Y38.1477
 X23.1754 Y38.4102
 X23.0817 Y38.6985
 X23.0500 Y39.0000
 X23.0817 Y39.3015
 X23.1754 Y39.5898
 X23.3269 Y39.8523
 X23.5298 Y40.0775
 X23.7750 Y40.2557
 X24.0519 Y40.3790
 X24.3484 Y40.4420
 X24.6516
 X24.9481 Y40.3790
 X25.2250 Y40.2557
 X25.4702 Y40.0775
 X25.6731 Y39.8523
 X25.8246 Y39.5898
 X25.9183 Y39.3015
 X25.9500 Y39.0000
 X25.9183 Y38.6985
 X25.8246 Y38.4102
 X25.6731 Y38.1477
 X25.4702 Y37.9224
 X25.2250 Y37.7443
 X24.9481 Y37.6210
 X24.6516 Y37.5579
 X24.3484
G0 Z5.0000
 Y-20.4420
G1 Z0.0000
 X24.0519 Y-20.3790
 X23.7750 Y-20.2557
 X23.5298 Y-20.0775
 X23.3269 Y-19.8523
 X23.1754 Y-19.5898
 X23.0817 Y-19.3015
 X23.0500 Y-19.0000
 X23.0817 Y-18.6985
 X23.1754 Y-18.4102
 X23.3269 Y-18.1477
 X23.5298 Y-17.9224
 X23.7750 Y-17.7443
 X24.0519 Y-17.6210
 X24.3484 Y-17.5579
 X24.6516
 X24.9481 Y-17.6210
 X25.2250 Y-17.7443
 X25.4702 Y-17.9224
 X25.6731 Y-18.1477
 X25.8246 Y-18.4102
 X25.9183 Y-18.6985
 X25.9500 Y-19.0000
 X25.9183 Y-19.3015
 X25.8246 Y-19.5898
 X25.6731 Y-19.8523
 X25.4702 Y-20.0775
 X25.2250 Y-20.2557
 X24.9481 Y-20.3790
 X24.6516 Y-20.4420
 X24.3484
G0 Z5.0000
 X-24.6516
G1 Z0.0000
 X-24.9481 Y-20.3790
 X-25.2250 Y-20.2557
 X-25.4702 Y-20.0775
 X-25.6731 Y-19.8523
 X-25.8246 Y-19.5898
 X-25.9183 Y-19.3015
 X-25.9500 Y-19.0000
 X-25.9183 Y-18.6985
 X-25.8246 Y-18.4102
 X-25.6731 Y-18.1477
 X-25.4702 Y-17.9224
 X-25.2250 Y-17.7443
 X-24.9481 Y-17.6210
 X-24.6516 Y-17.5579
 X-24.3484
 X-24.0519 Y-17.6210
 X-23.7750 Y-17.7443
 X-23.5298 Y-17.9224
 X-23.3269 Y-18.1477
 X-23.1754 Y-18.4102
 X-23.0817 Y-18.6985
 X-23.0500 Y-19.0000
 X-23.0817 Y-19.3015
 X-23.1754 Y-19.5898
 X-23.3269 Y-19.8523
 X-23.5298 Y-20.0775
 X-23.7750 Y-20.2557
 X-24.0519 Y-20.3790
 X-24.3484 Y-20.4420
 X-24.6516
G0 Z5.0000
 X26.3589 Y-49.5418
G1 Z0.0000
 X27.7919 Y-48.2723
 X28.5000 Y-46.0000
 Y46.0000
 X28.0418 Y47.8589
 X26.7723 Y49.2919
 X24.5000 Y50.0000
 X-24.5000
 X-26.3589 Y49.5418
 X-27.7919 Y48.2723
 X-28.5000 Y46.0000
 Y-46.0000
 X-28.0418 Y-47.8589
 X-26.7723 Y-49.2919
 X-24.5000 Y-50.0000
 X24.5000
 X26.3589 Y-49.5418
G0 Z5.0000
M5 (stop spindle)
G04 P3 (wait for 3 seconds)
G0 Z5.0000
M2 (end program)
